X: 2887
T: Barnacle, The
R: mazurka
M: 3/4
K: Dmajor
|:A3 F AB|d3 e fd|e4 (3fgb|af ef dB|
A3 F AB|d3 e fd|e3 a fe|1 d3 A Bd:|2 d4 A2||
f3 d Ad|fg fd Ad|e3 c Ac|ef ec Ac|
f3 d Ad|fg fd Ad|e3 a fe|d4 g:|
f3 a ef|d4 c2|B3 A FA|Bc BA FA|
f3 e df|a3 b2 af|e3 a fe|1 d3 f ag:|2 d6||

